static/logos/insided-wordmark-color.svg

<svg width="100" height="30" viewBox="0 0 100 30" fill="none" xmlns="http://www.w3.org/2000/svg">
<g clip-path="url(#clip0_1_2374)">
<path d="M36.6016 10.0045H39.2167V20.0317H36.6016V10.0045ZM43.181 15.0181V20.0317H40.7158V9.92119L41.3985 10.4875L46.8785 15.0181V9.98782H49.3103L49.2937 20.0983L43.181 15.0181ZM62.2361 9.73798C59.7043 9.73798 58.5716 11.1871 57.4722 13.7689V13.7855C57.3722 14.002 57.2558 14.2352 57.1558 14.4684L56.8225 15.218C56.2231 16.6005 55.8564 17.4333 54.807 17.4333C53.941 17.4333 53.3079 16.6338 53.3079 15.3846C53.3079 13.8855 54.091 13.0526 55.1404 12.403L53.7079 9.93782C51.9922 10.804 50.6597 12.6196 50.6597 15.4345C50.6597 18.3161 52.1588 20.4481 54.8737 20.4481C57.4055 20.4481 58.5382 18.999 59.6376 16.4172L59.7043 16.2507C59.7873 16.0841 59.8707 15.9009 59.9373 15.7177L60.2707 14.9681C60.87 13.5856 61.2367 12.7528 62.2858 12.7528C63.1522 12.7528 63.7852 13.5523 63.7852 14.8016C63.7852 16.3006 63.0022 17.1335 61.9528 17.7831L63.3852 20.2482C65.1343 19.3655 66.4834 17.5499 66.4834 14.7349C66.45 11.8867 64.9676 9.73798 62.2361 9.73798ZM67.8825 10.0045H70.4976V20.0317H67.8825V10.0045ZM72.0967 10.0045H75.7113C78.6761 10.0045 80.9413 11.92 80.9413 15.0181C80.9413 18.0662 78.6928 20.0317 75.7113 20.0317H72.0967V10.0045ZM75.5613 17.7664C77.4267 17.7664 78.2597 16.7171 78.2597 15.0181C78.2597 13.3524 77.4267 12.2698 75.5613 12.2698H74.6952V17.7664H75.5613ZM82.4237 10.0045H89.5528V12.2531H85.0388V13.9521H89.4361V16.0841H85.0388V17.7831H89.7528V20.0317H82.4237V10.0045ZM91.1519 10.0045H94.7664C97.7313 10.0045 99.9964 11.92 99.9964 15.0181C99.9964 18.0662 97.7479 20.0317 94.7664 20.0317H91.1519V10.0045ZM94.6331 17.7664C96.4985 17.7664 97.3313 16.7171 97.3313 15.0181C97.3313 13.3524 96.4985 12.2698 94.6331 12.2698H93.767V17.7664H94.6331Z" fill="#1A1A1A"/>
<path d="M14.9515 17.7664C16.4693 17.7664 17.6998 16.536 17.6998 15.0181C17.6998 13.5003 16.4693 12.2698 14.9515 12.2698C13.4336 12.2698 12.2031 13.5003 12.2031 15.0181C12.2031 16.536 13.4336 17.7664 14.9515 17.7664Z" fill="#1A1A1A"/>
<path d="M14.9485 19.2323C12.6332 19.2323 10.7344 17.35 10.7344 15.0181C10.7344 12.7029 12.6166 10.804 14.9485 10.804C17.2637 10.804 19.1626 12.6862 19.1626 15.0181C19.1626 17.35 17.2804 19.2323 14.9485 19.2323ZM14.9485 11.487C12.9997 11.487 11.4173 13.0693 11.4173 15.0181C11.4173 16.967 12.9997 18.5493 14.9485 18.5493C16.8973 18.5493 18.4797 16.967 18.4797 15.0181C18.4797 13.0693 16.8973 11.487 14.9485 11.487Z" fill="#676767"/>
<path d="M14.9504 8.62183C15.9715 8.62183 16.7993 7.79407 16.7993 6.77295C16.7993 5.75183 15.9715 4.92407 14.9504 4.92407C13.9293 4.92407 13.1016 5.75183 13.1016 6.77295C13.1016 7.79407 13.9293 8.62183 14.9504 8.62183Z" fill="#079247"/>
<path d="M14.9504 3.82482C15.9715 3.82482 16.7993 2.99706 16.7993 1.97596C16.7993 0.954847 15.9715 0.127075 14.9504 0.127075C13.9293 0.127075 13.1016 0.954847 13.1016 1.97596C13.1016 2.99706 13.9293 3.82482 14.9504 3.82482Z" fill="#D9E028"/>
<path d="M14.9504 25.112C15.9715 25.112 16.7993 24.2842 16.7993 23.2631C16.7993 22.242 15.9715 21.4142 14.9504 21.4142C13.9293 21.4142 13.1016 22.242 13.1016 23.2631C13.1016 24.2842 13.9293 25.112 14.9504 25.112Z" fill="#EA3981"/>
<path d="M10.8234 8.80524C11.3385 8.80524 11.7561 8.38761 11.7561 7.87245C11.7561 7.3573 11.3385 6.9397 10.8234 6.9397C10.3082 6.9397 9.89062 7.3573 9.89062 7.87245C9.89062 8.38761 10.3082 8.80524 10.8234 8.80524Z" fill="#3DB54A"/>
<path d="M19.0656 23.0799C19.5807 23.0799 19.9983 22.6623 19.9983 22.1471C19.9983 21.632 19.5807 21.2144 19.0656 21.2144C18.5504 21.2144 18.1328 21.632 18.1328 22.1471C18.1328 22.6623 18.5504 23.0799 19.0656 23.0799Z" fill="#F27BAA"/>
<path d="M22.0833 12.7361C23.1044 12.7361 23.9321 11.9084 23.9321 10.8873C23.9321 9.86615 23.1044 9.03839 22.0833 9.03839C21.0622 9.03839 20.2344 9.86615 20.2344 10.8873C20.2344 11.9084 21.0622 12.7361 22.0833 12.7361Z" fill="#2AAAE2"/>
<path d="M7.802 20.9811C8.82313 20.9811 9.65088 20.1534 9.65088 19.1323C9.65088 18.1111 8.82313 17.2834 7.802 17.2834C6.78088 17.2834 5.95312 18.1111 5.95312 19.1323C5.95312 20.1534 6.78088 20.9811 7.802 20.9811Z" fill="#ED237A"/>
<path d="M23.1828 15.9508C23.6979 15.9508 24.1155 15.5332 24.1155 15.0181C24.1155 14.5029 23.6979 14.0853 23.1828 14.0853C22.6676 14.0853 22.25 14.5029 22.25 15.0181C22.25 15.5332 22.6676 15.9508 23.1828 15.9508Z" fill="#9D1F60"/>
<path d="M6.7062 15.9508C7.22135 15.9508 7.63895 15.5332 7.63895 15.0181C7.63895 14.5029 7.22135 14.0853 6.7062 14.0853C6.19104 14.0853 5.77344 14.5029 5.77344 15.0181C5.77344 15.5332 6.19104 15.9508 6.7062 15.9508Z" fill="#9D1F60"/>
<path d="M19.0656 8.80524C19.5807 8.80524 19.9983 8.38761 19.9983 7.87245C19.9983 7.3573 19.5807 6.9397 19.0656 6.9397C18.5504 6.9397 18.1328 7.3573 18.1328 7.87245C18.1328 8.38761 18.5504 8.80524 19.0656 8.80524Z" fill="#3DB54A"/>
<path d="M10.8234 23.0799C11.3385 23.0799 11.7561 22.6623 11.7561 22.1471C11.7561 21.632 11.3385 21.2144 10.8234 21.2144C10.3082 21.2144 9.89062 21.632 9.89062 22.1471C9.89062 22.6623 10.3082 23.0799 10.8234 23.0799Z" fill="#F27BAA"/>
<path d="M22.0833 20.9811C23.1044 20.9811 23.9321 20.1534 23.9321 19.1323C23.9321 18.1111 23.1044 17.2834 22.0833 17.2834C21.0622 17.2834 20.2344 18.1111 20.2344 19.1323C20.2344 20.1534 21.0622 20.9811 22.0833 20.9811Z" fill="#ED237A"/>
<path d="M7.802 12.7361C8.82313 12.7361 9.65088 11.9084 9.65088 10.8873C9.65088 9.86615 8.82313 9.03839 7.802 9.03839C6.78088 9.03839 5.95312 9.86615 5.95312 10.8873C5.95312 11.9084 6.78088 12.7361 7.802 12.7361Z" fill="#2AAAE2"/>
<path d="M14.9504 29.909C15.9715 29.909 16.7993 29.0812 16.7993 28.0601C16.7993 27.039 15.9715 26.2112 14.9504 26.2112C13.9293 26.2112 13.1016 27.039 13.1016 28.0601C13.1016 29.0812 13.9293 29.909 14.9504 29.909Z" fill="#FECF0A"/>
<path d="M3.66137 10.3377C4.68249 10.3377 5.51025 9.50989 5.51025 8.48877C5.51025 7.46768 4.68249 6.63989 3.66137 6.63989C2.64027 6.63989 1.8125 7.46768 1.8125 8.48877C1.8125 9.50989 2.64027 10.3377 3.66137 10.3377Z" fill="#64CDF2"/>
<path d="M26.2317 23.3796C27.2528 23.3796 28.0806 22.5519 28.0806 21.5308C28.0806 20.5096 27.2528 19.6819 26.2317 19.6819C25.2106 19.6819 24.3828 20.5096 24.3828 21.5308C24.3828 22.5519 25.2106 23.3796 26.2317 23.3796Z" fill="#E571A8"/>
<path d="M26.2317 10.3377C27.2528 10.3377 28.0806 9.50989 28.0806 8.48877C28.0806 7.46768 27.2528 6.63989 26.2317 6.63989C25.2106 6.63989 24.3828 7.46768 24.3828 8.48877C24.3828 9.50989 25.2106 10.3377 26.2317 10.3377Z" fill="#64CDF2"/>
<path d="M3.66137 23.3796C4.68249 23.3796 5.51025 22.5519 5.51025 21.5308C5.51025 20.5096 4.68249 19.6819 3.66137 19.6819C2.64027 19.6819 1.8125 20.5096 1.8125 21.5308C1.8125 22.5519 2.64027 23.3796 3.66137 23.3796Z" fill="#E571A8"/>
<path d="M8.41919 5.57379C9.44031 5.57379 10.2681 4.74603 10.2681 3.72491C10.2681 2.70381 9.44031 1.87604 8.41919 1.87604C7.39807 1.87604 6.57031 2.70381 6.57031 3.72491C6.57031 4.74603 7.39807 5.57379 8.41919 5.57379Z" fill="#8DC641"/>
<path d="M21.4661 28.16C22.4872 28.16 23.3149 27.3322 23.3149 26.3112C23.3149 25.29 22.4872 24.4623 21.4661 24.4623C20.445 24.4623 19.6172 25.29 19.6172 26.3112C19.6172 27.3322 20.445 28.16 21.4661 28.16Z" fill="#F79421"/>
<path d="M21.4661 5.57379C22.4872 5.57379 23.3149 4.74603 23.3149 3.72491C23.3149 2.70381 22.4872 1.87604 21.4661 1.87604C20.445 1.87604 19.6172 2.70381 19.6172 3.72491C19.6172 4.74603 20.445 5.57379 21.4661 5.57379Z" fill="#8DC641"/>
<path d="M8.41919 28.16C9.44031 28.16 10.2681 27.3322 10.2681 26.3112C10.2681 25.29 9.44031 24.4623 8.41919 24.4623C7.39807 24.4623 6.57031 25.29 6.57031 26.3112C6.57031 27.3322 7.39807 28.16 8.41919 28.16Z" fill="#F79421"/>
<path d="M27.9739 16.8668C28.995 16.8668 29.8228 16.0391 29.8228 15.0179C29.8228 13.9968 28.995 13.1691 27.9739 13.1691C26.9528 13.1691 26.125 13.9968 26.125 15.0179C26.125 16.0391 26.9528 16.8668 27.9739 16.8668Z" fill="#932A8E"/>
<path d="M1.91138 16.8668C2.93249 16.8668 3.76027 16.0391 3.76027 15.0179C3.76027 13.9968 2.93249 13.1691 1.91138 13.1691C0.890272 13.1691 0.0625 13.9968 0.0625 15.0179C0.0625 16.0391 0.890272 16.8668 1.91138 16.8668Z" fill="#932A8E"/>
</g>
<defs>
<clipPath id="clip0_1_2374">
<rect width="100" height="30" fill="white"/>
</clipPath>
</defs>
</svg>

<svg xmlns="http://www.w3.org/2000/svg" width="213.333" height="64" fill="none" viewBox="0 0 100 30"><g clip-path="url(#a)"><path fill="#1A1A1A" d="M36.602 10.005h2.615v10.027h-2.615V10.005Zm6.579 5.013v5.014h-2.465V9.922l.682.566 5.48 4.53v-5.03h2.432l-.016 10.11-6.113-5.08Zm19.055-5.28c-2.532 0-3.664 1.45-4.764 4.03v.018c-.1.216-.216.45-.316.682l-.334.75c-.599 1.383-.966 2.215-2.015 2.215-.866 0-1.5-.8-1.5-2.048 0-1.5.784-2.332 1.833-2.982l-1.432-2.465c-1.716.866-3.048 2.682-3.048 5.496 0 2.882 1.499 5.014 4.214 5.014 2.532 0 3.664-1.449 4.764-4.03l.066-.167c.083-.167.167-.35.233-.533l.334-.75c.599-1.382.966-2.215 2.015-2.215.866 0 1.5.8 1.5 2.049 0 1.499-.784 2.332-1.833 2.981l1.432 2.465c1.75-.883 3.098-2.698 3.098-5.513-.033-2.848-1.515-4.997-4.247-4.997Zm5.646.267h2.616v10.027h-2.616V10.005Zm4.215 0h3.614c2.965 0 5.23 1.915 5.23 5.013 0 3.048-2.248 5.014-5.23 5.014h-3.614V10.005Zm3.464 7.761c1.866 0 2.699-1.049 2.699-2.748 0-1.666-.833-2.748-2.699-2.748h-.866v5.496h.866Zm6.863-7.761h7.129v2.248h-4.514v1.7h4.397v2.131H85.04v1.7h4.714v2.248h-7.33V10.005Zm8.728 0h3.614c2.965 0 5.23 1.915 5.23 5.013 0 3.048-2.248 5.014-5.23 5.014h-3.614V10.005Zm3.481 7.761c1.866 0 2.698-1.049 2.698-2.748 0-1.666-.832-2.748-2.698-2.748h-.866v5.496h.866ZM14.951 17.766a2.748 2.748 0 1 0 0-5.496 2.748 2.748 0 0 0 0 5.496Z"/><path fill="#676767" d="M14.948 19.232a4.219 4.219 0 0 1-4.214-4.214 4.219 4.219 0 0 1 4.214-4.214 4.219 4.219 0 0 1 4.215 4.214 4.208 4.208 0 0 1-4.215 4.214Zm0-7.745a3.533 3.533 0 0 0-3.53 3.531 3.533 3.533 0 0 0 3.53 3.531 3.533 3.533 0 0 0 3.532-3.53 3.533 3.533 0 0 0-3.532-3.532Z"/><path fill="#079247" d="M14.95 8.622a1.849 1.849 0 1 0 0-3.698 1.849 1.849 0 0 0 0 3.698Z"/><path fill="#D9E028" d="M14.95 3.825a1.849 1.849 0 1 0 0-3.698 1.849 1.849 0 0 0 0 3.698Z"/><path fill="#EA3981" d="M14.95 25.112a1.849 1.849 0 1 0 0-3.698 1.849 1.849 0 0 0 0 3.698Z"/><path fill="#3DB54A" d="M10.823 8.805a.933.933 0 1 0 0-1.865.933.933 0 0 0 0 1.865Z"/><path fill="#F27BAA" d="M19.066 23.08a.933.933 0 1 0 0-1.866.933.933 0 0 0 0 1.866Z"/><path fill="#2AAAE2" d="M22.083 12.736a1.849 1.849 0 1 0 0-3.697 1.849 1.849 0 0 0 0 3.697Z"/><path fill="#ED237A" d="M7.802 20.981a1.849 1.849 0 1 0 0-3.698 1.849 1.849 0 0 0 0 3.698Z"/><path fill="#9D1F60" d="M23.183 15.95a.933.933 0 1 0 0-1.865.933.933 0 0 0 0 1.866ZM6.706 15.95a.933.933 0 1 0 0-1.865.933.933 0 0 0 0 1.866Z"/><path fill="#3DB54A" d="M19.066 8.805a.933.933 0 1 0 0-1.865.933.933 0 0 0 0 1.865Z"/><path fill="#F27BAA" d="M10.823 23.08a.933.933 0 1 0 0-1.866.933.933 0 0 0 0 1.866Z"/><path fill="#ED237A" d="M22.083 20.981a1.849 1.849 0 1 0 0-3.697 1.849 1.849 0 0 0 0 3.697Z"/><path fill="#2AAAE2" d="M7.802 12.736a1.849 1.849 0 1 0 0-3.698 1.849 1.849 0 0 0 0 3.698Z"/><path fill="#FECF0A" d="M14.95 29.909a1.849 1.849 0 1 0 0-3.698 1.849 1.849 0 0 0 0 3.698Z"/><path fill="#64CDF2" d="M3.661 10.338a1.849 1.849 0 1 0 0-3.698 1.849 1.849 0 0 0 0 3.698Z"/><path fill="#E571A8" d="M26.232 23.38a1.849 1.849 0 1 0 0-3.698 1.849 1.849 0 0 0 0 3.698Z"/><path fill="#64CDF2" d="M26.232 10.338a1.849 1.849 0 1 0 0-3.698 1.849 1.849 0 0 0 0 3.698Z"/><path fill="#E571A8" d="M3.661 23.38a1.849 1.849 0 1 0 0-3.698 1.849 1.849 0 0 0 0 3.698Z"/><path fill="#8DC641" d="M8.42 5.574a1.849 1.849 0 1 0 0-3.698 1.849 1.849 0 0 0 0 3.698Z"/><path fill="#F79421" d="M21.466 28.16a1.849 1.849 0 1 0 0-3.698 1.849 1.849 0 0 0 0 3.698Z"/><path fill="#8DC641" d="M21.466 5.574a1.849 1.849 0 1 0 0-3.698 1.849 1.849 0 0 0 0 3.698Z"/><path fill="#F79421" d="M8.42 28.16a1.849 1.849 0 1 0 0-3.698 1.849 1.849 0 0 0 0 3.698Z"/><path fill="#932A8E" d="M27.974 16.867a1.849 1.849 0 1 0 0-3.698 1.849 1.849 0 0 0 0 3.698ZM1.911 16.867a1.849 1.849 0 1 0 0-3.698 1.849 1.849 0 0 0 0 3.698Z"/></g><defs><clipPath id="a"><path fill="#fff" d="M0 0h100v30H0z"/></clipPath></defs></svg>
